X:1
%
T:Ostend
M:C
L:1/8
B:Skene Manuscript c. 1615
K:Dmin
ag|f2e2d2 ef|gfed c2e2|d2 a2 gfed|e3A A4||
dcde defd|edcd efge|d2 a2 gfed|e3A A2||ag|
f2F2 f2 ag|f2F2 f4|fg a2 fg a2|g2e2c2e2|
ef g2 ef g2|f3d d2a2|d2 ef e2d2|^c3 A A2||

